X:1
T:Collier's (The)
R:Reel
M:4/4
L:1/8
K:Dmix
|:FDFG A2AB|cAdB cAGB|Add^c d2de|fde^c d^cAG|
F2FG AGAB|cAdB cAGB|Add^c ABAG|1 EFGE FDDE:|2 EFGE FDD2||
|:f2eg fde^c|Add^c Adde|f2eg fde^c|AGAB c2cd|
eaag efge|dfed cAGB|Add^c ABAG|1 EFGE FDD2:|2 EFGE FDDE||

